src/actions/symbolic/xapp-view-fit-height-symbolic.svg

<svg width="16" height="16" version="1.1" xmlns="http://www.w3.org/2000/svg">
 <path d="m15 1h-14v1h14zm0 13h-14v1h14zm-4.1719-8.1719-2.8281-2.8281-2.8281 2.8281 0.70703 0.70703 1.6211-1.6211v6.1719l-1.6211-1.6211-0.70703 0.70703 2.8281 2.8281 2.8281-2.8281-0.70703-0.70703-1.6211 1.6211v-6.1719l1.6211 1.6211z" fill="#363636" fill-rule="evenodd" stop-color="#000000"/>
</svg>

<svg xmlns="http://www.w3.org/2000/svg" width="16" height="16">
    <path fill="#050505" fill-opacity=".7" fill-rule="evenodd" d="M15 1H1v1h14zm0 13H1v1h14zm-4.172-8.172L8 3 5.172 5.828l.707.707L7.5 4.914v6.172L5.879 9.465l-.707.707L8 13l2.828-2.828-.707-.707-1.621 1.62V4.915l1.621 1.621z"/>
</svg>
